**kern	**silbe	**kern	**silbe
*ICvox	*	*ICvox	*
*G:	*	*G:	*
*M4/4	*	*M4/4	*
*clefG2	*	*clefG2	*
r;	.	r;	.
=1	=1	=1	=1
2r	.	1r	.
8r	.	.	.
8B	It's	.	.
8c	been	.	.
8B	a	.	.
=2	=2	=2	=2
2d	hard	1r	.
4.d	day's	.	.
[8d	night	.	.
=3	=3	=3	=3
8d]	_	1r	.
2r	.	.	.
8d	and	.	.
8d	I've	.	.
8c	been	.	.
=4	=4	=4	=4
8d	work-	1r	.
2f	-in'	.	.
8d	like	.	.
8c	a	.	.
16d	dog	.	.
16c	_	.	.
=5	=5	=5	=5
4B	_	1r	.
4.r	.	.	.
8B	It's	.	.
8c	been	.	.
8B	a	.	.
=6	=6	=6	=6
2d	hard	1r	.
4.d	day's	.	.
[8d	night	.	.
=7	=7	=7	=7
8d]	_	1r	.
2r	.	.	.
8c	I	.	.
8d	should	.	.
8c	be	.	.
=8	=8	=8	=8
8d	slee-	1r	.
2f	-pin'	.	.
8d	like	.	.
8c	a	.	.
16d	log	.	.
16c	_	.	.
=9	=9	=9	=9
4B	_	2r	.
4.r	.	.	.
.	.	8r	.
8e	But	8c	But
8f	when	8d	when
8f#	I	8d#	I
=10	=10	=10	=10
8g	get	8e	get
8f#	home	8d#	home
8f	to	8d	to
8e	you	8c	you
8r	.	8r	.
8g	I	8e	I
8g	find	8e	find
8g#	the	8e#	the
=11	=11	=11	=11
8a	things	8f#	things
8a-	that	8f	that
8g	you	8e	you
8f#	do	8d	do
8r	.	2r	.
8B	will	.	.
8c	make	.	.
8B	me	.	.
=12	=12	=12	=12
8d	feel	1r	.
4.G	_	.	.
8B-	al-	.	.
4c	_	.	.
[8B-	-right	.	.
=13	=13	=13	=13
8B-]	_	1r	.
2r	.	.	.
8B	You	.	.
8c	know	.	.
8B	I	.	.
=14	=14	=14	=14
2d	work	1r	.
4.d	all	.	.
[8d	day	.	.
=15	=15	=15	=15
4d]	_	1r	.
4.r	.	.	.
8d	to	.	.
8d	get	.	.
8c	you	.	.
=16	=16	=16	=16
8d	mo-	1r	.
2f	-ney	.	.
8d	to	.	.
8d	buy	.	.
8c	you	.	.
=17	=17	=17	=17
16d	things	1r	.
16c	_	.	.
8B	_	.	.
2r	.	.	.
8c	And	.	.
8B	it's	.	.
=18	=18	=18	=18
8d	worth	1r	.
8d	it	.	.
8d	just	.	.
8d	to	.	.
8d	hear	.	.
4d	you	.	.
[8d	say	.	.
=19	=19	=19	=19
8d]	_	1r	.
2r	.	.	.
8c	You're	.	.
8d	go-	.	.
8c	-nna	.	.
=20	=20	=20	=20
8d	give	1r	.
2f	me	.	.
8d	ev-	.	.
8c	-ery-	.	.
16d	-thing	.	.
16c	_	.	.
=21	=21	=21	=21
4B	_	2r	.
4.r	.	.	.
.	.	8r	.
8e	So	8c	So
8f	why	8d	why
8f#	on	8d#	on
=22	=22	=22	=22
8g	earth	8e	earth
8f#	should	8d#	should
8f	I	8d	I
8e	moan	8c	moan
8r	.	8r	.
8g	'cause	8e	'cause
8g	when	8e	when
8g#	I	8e#	I
=23	=23	=23	=23
8a	get	8f#	get
8a-	you	8f	you
8g	a-	8e	a-
8f#	-lone	8d	-lone
8r	.	2r	.
8B	You	.	.
8c	know	.	.
8B	I	.	.
=24	=24	=24	=24
8d	feel	1r	.
4.G	_	.	.
8B-	o-	.	.
4c	_	.	.
[8B-	-kay	.	.
=25	=25	=25	=25
4B-]	_	1r	.
4r	.	.	.
8d	When	.	.
4g	I'm	.	.
[8f#	home	.	.
=26	=26	=26	=26
2.f#]	_	1r	.
4r	.	.	.
=27	=27	=27	=27
8g	ev-	1r	.
8f#	-ery-	.	.
8e	-thing	.	.
4e	seems	.	.
8f#	to	.	.
8g	be	.	.
8e	_	.	.
=28	=28	=28	=28
4.f#	right	1r	.
4.r	.	.	.
4r	.	.	.
=29	=29	=29	=29
2r	.	1r	.
8d	When	.	.
4f#	I'm	.	.
[8g	home	.	.
=30	=30	=30	=30
2g]	_	1r	.
2r	.	.	.
=31	=31	=31	=31
8g	feel-	1r	.
8f#	-ing	.	.
8e	you	.	.
4e	hol-	.	.
8f#	-ding	.	.
4g	me	.	.
=32	=32	=32	=32
2a	tight	1r	.
4.r	.	.	.
[8a	tight	.	.
=33	=33	=33	=33
4.a]	_	1r	.
4a	yeah	.	.
8B	It's	.	.
8c	been	.	.
8B	a	.	.
=34	=34	=34	=34
2d	hard	1r	.
4.d	day's	.	.
[8d	night	.	.
=35	=35	=35	=35
8d]	_	1r	.
2r	.	.	.
8c	and	.	.
8d	I've	.	.
8c	been	.	.
=36	=36	=36	=36
8d	work-	1r	.
2f	-in'	.	.
8d	like	.	.
8c	a	.	.
16d	dog	.	.
16c	_	.	.
=37	=37	=37	=37
4B	_	1r	.
4.r	.	.	.
8B	It's	.	.
8c	been	.	.
8B	a	.	.
=38	=38	=38	=38
2d	hard	1r	.
4.d	day's	.	.
[8d	night	.	.
=39	=39	=39	=39
8d]	_	1r	.
2r	.	.	.
8c	I	.	.
8d	should	.	.
8c	be	.	.
=40	=40	=40	=40
8d	slee-	1r	.
2f	-pin'	.	.
8d	like	.	.
8c	a	.	.
16d	log	.	.
16c	_	.	.
=41	=41	=41	=41
4B	_	2r	.
4.r	.	.	.
.	.	8r	.
8e	But	8c	But
8f	when	8d	when
8f#	I	8d#	I
=42	=42	=42	=42
8g	get	8e	get
8f#	home	8d#	home
8f	to	8d	to
8e	you	8c	you
8r	.	8r	.
8g	I	8e	I
8g	find	8e	find
8g#	the	8e#	the
=43	=43	=43	=43
8a	things	8f#	things
8a-	that	8f	that
8g	you	8e	you
8f#	do	8d	do
8r	.	2r	.
8B	will	.	.
8c	make	.	.
8B	me	.	.
=44	=44	=44	=44
8d	feel	1r	.
4.G	_	.	.
8B-	al-	.	.
4c	_	.	.
[8B-	-right	.	.
=45	=45	=45	=45
8B-]	_	1r	.
2..r	.	.	.
=46	=46	=46	=46
1r	.	1r	.
=47	=47	=47	=47
1r	.	1r	.
=48	=48	=48	=48
1r	.	1r	.
=49	=49	=49	=49
1r	.	1r	.
=50	=50	=50	=50
1r	.	1r	.
=51	=51	=51	=51
1r	.	1r	.
=52	=52	=52	=52
1r	.	1r	.
=53	=53	=53	=53
2r	.	2r	.
8r	.	8r	.
8e	So	8c	So
8f	why	8d	why
8f#	on	8d#	on
=54	=54	=54	=54
8g	earth	8e	earth
8f#	should	8d#	should
8f	I	8d	I
8e	moan	8c	moan
8r	.	8r	.
8g	'cause	8e	'cause
8g	when	8e	when
8g#	I	8e#	I
=55	=55	=55	=55
8a	get	8f#	get
8a-	you	8f	you
8g	a-	8e	a-
8f#	-lone	8d	-lone
8r	.	2r	.
8B	You	.	.
8c	know	.	.
8B	I	.	.
=56	=56	=56	=56
8d	feel	1r	.
4.G	_	.	.
8B-	o-	.	.
4c	_	.	.
[8B-	-kay	.	.
=57	=57	=57	=57
8B-]	_	1r	.
4.r	.	.	.
8d	When	.	.
4g	I'm	.	.
[8f#	home	.	.
=58	=58	=58	=58
2.f#]	_	1r	.
4r	.	.	.
=59	=59	=59	=59
8g	ev-	1r	.
8f#	-ery-	.	.
8e	-thing	.	.
4e	seems	.	.
8f#	to	.	.
8g	be	.	.
8e	_	.	.
=60	=60	=60	=60
4.f#	right	1r	.
4.d	_	.	.
4r	.	.	.
=61	=61	=61	=61
2r	.	1r	.
8d	When	.	.
4f#	I'm	.	.
[8g	home	.	.
=62	=62	=62	=62
2.g]	_	1r	.
4r	.	.	.
=63	=63	=63	=63
8g	fee-	1r	.
8f#	-ling	.	.
8e	you	.	.
4e	hol-	.	.
8f#	-ding	.	.
4g	me	.	.
=64	=64	=64	=64
2a	tight	1r	.
4.r	.	.	.
[8a	tight	.	.
=65	=65	=65	=65
4.a]	_	1r	.
4a	yeah	.	.
8B	It's	.	.
8c	been	.	.
8B	a	.	.
=66	=66	=66	=66
2d	hard	1r	.
4.d	day's	.	.
[8d	night	.	.
=67	=67	=67	=67
8d]	_	1r	.
2r	.	.	.
8c	and	.	.
8d	I've	.	.
8c	been	.	.
=68	=68	=68	=68
8d	work-	1r	.
2f	-in'	.	.
8d	like	.	.
8c	a	.	.
16d	dog	.	.
16c	_	.	.
=69	=69	=69	=69
4B	_	1r	.
4.r	.	.	.
8B	It's	.	.
8c	been	.	.
8B	a	.	.
=70	=70	=70	=70
2d	hard	1r	.
4.d	day's	.	.
16d	night	.	.
16c	_	.	.
=71	=71	=71	=71
8B	_	1r	.
2r	.	.	.
8c	I	.	.
8d	should	.	.
8c	be	.	.
=72	=72	=72	=72
8d	slee-	1r	.
2f	-pin'	.	.
4d	like	.	.
8c	a	.	.
=73	=73	=73	=73
16d	log	2r	.
16c	_	.	.
8B	_	.	.
4.r	.	.	.
.	.	8r	.
8e	But	8c	But
8f	when	8d	when
8f#	I	8d#	I
=74	=74	=74	=74
8g	get	8e	get
8f#	home	8d#	home
8f	to	8d	to
8e	you	8c	you
8r	.	8r	.
8g	I	8e	I
8g	find	8e	find
8g#	the	8e#	the
=75	=75	=75	=75
8a	things	8f#	things
8a-	that	8f	that
8g	you	8e	you
8f#	do	8d	do
8r	.	2r	.
8B	will	.	.
8c	make	.	.
8B	me	.	.
=76	=76	=76	=76
8d	feel	1r	.
4.G	_	.	.
8B-	al-	.	.
4c	_	.	.
[8B-	-right	.	.
=77	=77	=77	=77
8B-]	_	1r	.
2r	.	.	.
8B	you	.	.
8c	know	.	.
8B	I	.	.
=78	=78	=78	=78
8d	feel	1r	.
4.G	_	.	.
8B-	al-	.	.
4c	_	.	.
[8B-	-right	.	.
=79	=79	=79	=79
8B-]	_	1r	.
2r	.	.	.
8B	you	.	.
8c	know	.	.
8B	I	.	.
=80	=80	=80	=80
2d	feel	1r	.
4.d	al-	.	.
[8d	-right	.	.
=81	=81	=81	=81
4d]	_	1r	.
4r	.	.	.
2r	.	.	.
=82	=82	=82	=82
1r	.	1r	.
=83	=83	=83	=83
1r	.	1r	.
=84	=84	=84	=84
1r	.	1r	.
=85	=85	=85	=85
1r	.	1r	.
=86	=86	=86	=86
1r	.	1r	.
r;	.	r;	.
r;	.	r;	.
*-	*-	*-	*-
!!!ENC: Nathaniel Condit-Schultz